X:1
T:My High Tower
T:Philip Paul Bliss, 1876
T:My High Tower
T:Public Domain
T:Public Domain
C:Philip Paul Bliss, 1876
Z:Public Domain
%%score ( 1 2 ) ( 3 4 )
L:1/8
M:4/4
K:Ab
V:1 treble 
V:2 treble 
V:3 bass 
V:4 bass 
V:1
 [CA]2 | [Ec]2 [Ec]2 [Fd]2 [DB]2 | [Ec]4 [EA]2 ([EG][FA]) | [GB]2 [GB]2 [Ac]2 [AB]2 | %4
w: 1.~In|Zi- on’s Rock a-|bid- ing, My *|soul her tri- umph|
w: 2.~Wild|waves are round me|swell- ing, Dark *|clouds a- bove I|
w: 3.~My|Tower of strength can|ne- ver In *|time of trou- ble|
 (B2 e4) (FE) | [Ec]2 [Ec]2 [Fd]2 [DB]2 | [Ec]4 [EA]2 [FA]2 | [FB]2 [Bd]2 [Ac]3 [GB] | A6 || %9
w: sings; * In *|vil- ion hid- ing,|I praise the|King of kings. *||
w: see; * Yet, *|For- tress dwell- ing,|More safe I|can- not be. My|High|
w: fail; * No *|hell, for- ev- er,|A- gainst it|shall pre- vail. *||
"^Refrain" [Ac]2 | (G2 A2) [Be]2 [Ge]2 | (e2 c4) [Ec]2 | [Ac]4 [AB]2 A2 | ([Ac]2 [GB]4) [Gc]2 | %14
w: |||||
w: is|He! * To Him|I * flee;|Him con- fide,|Him * a-|
w: |||||
 [FA]2 [FA]2 [GB]2 [Ac]2 | [Ad]2 [Af]2 [Ae]2 [Ac]2 | [Ae]4 [Ac]2 [GB]2 | A6 |] %18
w: ||||
w: bide; My High Tower|is He! * *|||
w: ||||
V:2
 x2 | x8 | x8 | x8 | G6 d2 | x8 | x8 | x8 | A6 || x2 | e4 x4 | A6 x2 | x6 A2 | x8 | x8 | x8 | x8 | %17
w: ||||His pa-|||||||||||||
w: ||||in my||||Tower||will|In|in|||||
w: ||||power of|||||||||||||
 A6 |] %18
w: |
w: |
w: |
V:3
 A,2 | A,2 A,2 A,2 A,2 | A,4 [A,,C]2 [E,E]2 | [E,E]2 [E,E]2 [E,E]2 [E,E]2 | (E2 B,4) (F,G,) | %5
 A,2 A,2 A,2 A,2 | A,4 [A,,C]2 [F,C]2 | [D,D]2 [B,,F]2 [E,E]3 [E,D] | [A,,C]6 || [A,C]2 | %10
 (B,2 C2) [E,D]2 [E,B,]2 | (C2 E4) [A,E]2 | [A,E]4 [A,D]2 [A,C]2 | [F,E]6 [E,D]2 | %14
 [F,C]2 [F,C]2 [E,E]2 (A,_G,) | [F,D]2 [D,D]2 [C,A,]2 [F,A,]2 | [E,C]4 [E,E]2 [E,D]2 | [A,,C]6 |] %18
V:4
 A,2 | A,2 A,2 A,2 A,2 | A,4 x4 | x8 | E,6 B,2 | A,2 A,2 A,2 A,2 | A,4 x4 | x8 | x6 || x2 | %10
 E,4 x4 | A,6 x2 | x8 | x8 | x6 E2 | x8 | x8 | x6 |] %18

